sources/design/Outline/൨.svg

<svg:svg xmlns:cc="http://creativecommons.org/ns#" xmlns:dc="http://purl.org/dc/elements/1.1/" xmlns:inkscape="http://www.inkscape.org/namespaces/inkscape" xmlns:rdf="http://www.w3.org/1999/02/22-rdf-syntax-ns#" xmlns:sodipodi="http://sodipodi.sourceforge.net/DTD/sodipodi-0.dtd" xmlns:svg="http://www.w3.org/2000/svg" xml:space="preserve" width="1000" height="1000" version="1.1" style="clip-rule:evenodd;fill-rule:evenodd;image-rendering:optimizeQuality;shape-rendering:geometricPrecision;text-rendering:geometricPrecision" viewBox="0 0 1000 1000" id="svg10" sodipodi:docname="൨.svg" inkscape:version="1.0.2 (e86c870879, 2021-01-15)"><svg:metadata id="metadata14"><rdf:RDF><cc:Work rdf:about=""><dc:format>image/svg+xml</dc:format><dc:type rdf:resource="http://purl.org/dc/dcmitype/StillImage" /><dc:title /></cc:Work></rdf:RDF></svg:metadata><sodipodi:namedview pagecolor="#ffffff" bordercolor="#666666" borderopacity="1" objecttolerance="10" gridtolerance="10" guidetolerance="10" inkscape:pageopacity="0" inkscape:pageshadow="2" inkscape:window-width="1920" inkscape:window-height="1007" id="namedview12" showgrid="false" inkscape:zoom="0.678" inkscape:cx="465.16299" inkscape:cy="462.37134" inkscape:window-x="1920" inkscape:window-y="0" inkscape:window-maximized="1" inkscape:current-layer="svg10" showguides="true" inkscape:guide-bbox="true" inkscape:document-rotation="0" inkscape:snap-to-guides="true" inkscape:pagecheckerboard="0"><sodipodi:guide position="0,1000" orientation="0,1" id="guide16" inkscape:label="" inkscape:locked="true" inkscape:color="rgb(0,0,255)" /><sodipodi:guide position="1763.3122,2036.1693" orientation="1000,0" id="guide18" /><sodipodi:guide position="0,200" orientation="0,1" id="guide20" inkscape:label="base" inkscape:locked="true" inkscape:color="rgb(0,0,255)" /><inkscape:grid type="xygrid" id="grid24" originx="-473.37552" originy="-489.69235" /><sodipodi:guide position="0,0" orientation="0,1" id="guide34" inkscape:label="bottom" inkscape:locked="true" inkscape:color="rgb(0,0,255)" /><sodipodi:guide position="225.05109,1693.3186" orientation="0,1" id="guide44" inkscape:label="" inkscape:locked="false" inkscape:color="rgb(0,0,255)" /><sodipodi:guide position="0,900" orientation="0,1" id="guide46" inkscape:label="" inkscape:locked="true" inkscape:color="rgb(0,0,255)" /><sodipodi:guide position="771.36591,530.94987" orientation="-1,0" id="guide841" inkscape:label="width" inkscape:locked="false" inkscape:color="rgb(0,0,255)" /><sodipodi:guide position="0,1000" orientation="0,1000" id="guide860" /><sodipodi:guide position="1001.0497,612.78754" orientation="1000,0" id="guide862" /><sodipodi:guide position="1000,0" orientation="0,-1000" id="guide864" /><sodipodi:guide position="0,0" orientation="-1000,0" id="guide866" /></sodipodi:namedview>
 <svg:defs id="defs4"><inkscape:path-effect effect="fillet_chamfer" id="path-effect860" is_visible="true" lpeversion="1" satellites_param="F,0,1,1,0,20.981517,0,1 @ F,0,1,1,0,20.981517,0,1 @ F,0,0,1,0,0,0,1 @ F,0,0,1,0,0,0,1 @ F,0,0,1,0,0,0,1 @ F,0,0,1,0,0,0,1 @ F,0,0,1,0,0,0,1 @ F,0,0,1,0,0,0,1 @ F,0,0,1,0,0,0,1 @ F,0,0,1,0,0,0,1 @ F,0,0,1,0,0,0,1 @ F,0,0,1,0,0,0,1 @ F,0,1,1,0,20.981517,0,1 @ F,0,1,1,0,20.981517,0,1 @ F,0,0,1,0,0,0,1 @ F,0,0,1,0,0,0,1 @ F,0,0,1,0,0,0,1 @ F,0,0,1,0,0,0,1 @ F,0,0,1,0,0,0,1 @ F,0,0,1,0,0,0,1 @ F,0,0,1,0,0,0,1 @ F,0,0,1,0,0,0,1 @ F,0,0,1,0,0,0,1 @ F,0,0,1,0,0,0,1 @ F,0,0,1,0,0,0,1 @ F,0,0,1,0,0,0,1 @ F,0,0,1,0,0,0,1 @ F,0,1,1,0,20.981517,0,1 @ F,0,1,1,0,20.981517,0,1" unit="px" method="auto" mode="F" radius="0" chamfer_steps="1" flexible="false" use_knot_distance="true" apply_no_radius="true" apply_with_radius="true" only_selected="true" hide_knots="false" /><inkscape:path-effect effect="spiro" id="path-effect859" is_visible="true" lpeversion="1" /><inkscape:path-effect effect="spiro" id="path-effect862" is_visible="true" lpeversion="1" /><inkscape:path-effect effect="spiro" id="path-effect1521" is_visible="true" lpeversion="1" /><inkscape:path-effect effect="spiro" id="path-effect858" is_visible="true" lpeversion="1" /><inkscape:path-effect effect="spiro" id="path-effect854" is_visible="true" lpeversion="1" />
  <svg:style type="text/css" id="style2">
   
    .fil0 {fill:#EF7F1A;fill-rule:nonzero}
   
  </svg:style>
 <inkscape:path-effect effect="spiro" id="path-effect1214" is_visible="true" lpeversion="1" /><inkscape:path-effect effect="spiro" id="path-effect1195" is_visible="true" lpeversion="1" /><inkscape:path-effect effect="spiro" id="path-effect992" is_visible="true" lpeversion="1" /><inkscape:path-effect effect="spiro" id="path-effect287" is_visible="true" lpeversion="1" /><inkscape:path-effect effect="spiro" id="path-effect1032" is_visible="true" lpeversion="1" /><inkscape:path-effect effect="spiro" id="path-effect1218" is_visible="true" lpeversion="1" /><inkscape:path-effect effect="spiro" id="path-effect309" is_visible="true" lpeversion="1" /><inkscape:path-effect effect="spiro" id="path-effect1176" is_visible="true" lpeversion="1" /><inkscape:path-effect effect="spiro" id="path-effect1026" is_visible="true" lpeversion="1" /><inkscape:path-effect effect="spiro" id="path-effect1030" is_visible="true" lpeversion="1" /></svg:defs>
 
<svg:g id="path1087-1-75"><svg:path style="color:#000000;clip-rule:nonzero;fill:#1a5fb4;fill-rule:nonzero;stroke-linecap:round;stroke-linejoin:round;-inkscape-stroke:none;paint-order:fill stroke markers;shape-rendering:auto" d="M 299.51172,65.160156 C 268.94862,64.478902 238.15333000000004,67.205397 207.83398000000003,74.230469 C 146.95563,88.336141 88.899984,120.21367 47.992187,169.98437 C 6.3109426,220.6961 -13.545173,284.95418 -16.175781,348.16602 C -18.7951,411.10658 -5.0309528,472.47838 15.806641,529.29883 C 43.89387,605.88776 84.30824,674.47331 118.47656,743.04297 C 131.96264,770.1071 144.71098,797.54021 156.70312,825.29883 C 162.06881,837.71895 173.28044,848.63181 187.34375,852.3007799999999 C 201.40706,855.96976 216.68109,851.8666999999999 227.42578,843.50781 L 335.88086,759.1347699999999 C 338.49321,757.1024799999999 340.92768,754.7279299999999 343.12305,752.1015599999998 L 364.6582,794.7832 C 375.52752,816.32422 397.74706,830.0 421.875,830.0 L 740.4921899999999,830.0 C 767.83692,830.0 791.0185299999999,808.22127 792.7226599999999,780.92969 L 800.0,664.37891 C 800.78388,651.82506 796.4017,634.6989100000001 781.6875,625.3613300000001 C 766.9733,616.0237400000001 750.1575,619.18658 739.12305,624.89453 C 698.57249,645.87071 655.38894,661.78664 610.96094,672.2793 C 637.62489,640.40192 660.9557400000001,605.31863 678.4433600000001,566.67773 C 705.3586300000001,507.20538 717.8987500000001,439.61897999999997 706.7226600000001,373.26953000000003 C 695.12102,304.39378 658.90412,242.60712 610.94922,194.61133 C 550.42833,134.03883 471.79304,94.95565 389.79492,76.533203 C 360.40623,69.930471 330.07482,65.841411 299.51172,65.160156 M 298.24805000000003,125.18164 C 324.35886000000005,125.7664 350.72432000000003,129.25119 376.64258000000007,135.07422 C 448.88425000000007,151.30469 517.28975,185.76171 568.5039100000001,237.01953 C 608.8711200000001,277.42116 638.4021100000001,328.88837 647.5566400000001,383.23633 C 656.3792000000001,435.61346000000003 646.5056900000002,491.72096 623.7793000000001,541.9375 C 600.9711800000001,592.33462 565.5401200000001,637.65905 524.1582000000002,677.41797 C 521.0046400000002,680.44785 517.6932200000002,683.30813 514.4765600000002,686.27148 C 497.15571000000017,687.25242 479.79636000000016,687.46176 462.4628900000002,686.83008 C 470.52695000000017,681.38051 478.4748400000002,675.7583099999999 486.2832000000002,669.94531 C 518.7142400000002,645.80179 550.2571300000002,617.5459999999999 574.7500000000002,582.0234399999999 C 599.3801200000003,546.3018199999999 616.3650300000003,503.23853999999994 616.3789100000002,457.23632999999995 C 616.3966100000002,398.7204899999999 589.0625100000002,345.44582999999994 551.8515600000003,305.09374999999994 C 491.2749200000003,239.40356999999995 403.4467100000003,204.48515999999995 315.7011700000003,202.91405999999995 C 280.0701100000003,202.27607999999995 243.31330000000025,206.90749999999994 208.39844000000028,220.16210999999996 C 173.34205000000028,233.47043999999997 140.64995000000027,255.50472999999994 116.86914000000027,286.6230499999999 C 88.97445600000027,323.1245599999999 76.32821400000027,368.2876099999999 76.77343700000027,412.5331999999999 C 77.21634600000027,456.5487299999999 90.23504900000027,498.7451999999999 110.19336000000027,536.00781 C 134.49702000000028,581.38329 168.33503000000027,618.8652 202.98437000000027,652.3476599999999 C 228.87886000000026,677.3700899999999 256.1921400000003,700.89722 284.62109000000027,722.9941399999999 L 204.52344000000028,785.3066399999999 C 194.20588,762.08358 183.51143,739.02789 172.17773,716.2832 C 136.78099,645.24833 97.754926,578.49164 72.138672,508.64062 C 53.188208,456.96604 41.587772,403.18029 43.773437,350.66016 C 45.947814,298.41129 62.647627,246.6453 94.34375,208.08203 C 125.42311000000001,170.26916 171.81002,144.16643 221.37695,132.68164000000002 C 246.28025,126.91148000000001 272.13723,124.59688000000001 298.24805,125.18164000000002 L 298.24805000000003,125.18164 M 314.62695,262.9043 C 386.99652000000003,264.20007999999996 459.75704,293.73375 507.74219000000005,345.76953 C 536.88396,377.37129 556.3907800000001,417.85497 556.37891,457.2168 C 556.36991,488.19813999999997 544.42291,520.3080699999999 525.35352,547.96484 C 506.14688,575.82067 479.77282,599.98914 450.45312,621.81641 C 422.6915,642.4837600000001 393.06215000000003,660.66786 362.0625,676.0703100000001 C 354.0275,680.06257 347.61322,686.25741 342.83594,693.5000000000001 C 340.48117,690.7434100000002 337.86978999999997,688.2636000000001 335.06444999999997,686.1640600000001 C 303.36271999999997,662.4381800000001 273.15117,636.7157100000001 244.67772999999997,609.20117 C 212.16130999999996,577.77981 182.88169999999997,544.63882 163.08593999999997,507.67969000000005 C 146.93535999999997,477.5262000000001 137.09613999999996,444.38762 136.76952999999997,411.92969000000005 C 136.44523999999998,379.70182000000005 145.99869999999999,347.3181900000001 164.54101999999997,323.05469000000005 C 180.39857999999998,302.30431000000004 203.71890999999997,286.11645000000004 229.69335999999998,276.25586000000004 C 255.80934,266.34154000000007 284.98783,262.37361000000004 314.62694999999997,262.90430000000003 L 314.62695,262.9043 M 738.16406,691.93359 L 733.28906,770.0 L 508.13672,770.0 C 518.78402,761.82058 529.25715,753.41944 539.4082000000001,744.63086 C 564.0224300000001,742.37364 588.5054500000001,738.66828 612.68555,733.4707 C 655.86297,724.1895999999999 697.96747,710.17833 738.1640600000001,691.93359 L 738.16406,691.93359" id="path28159" /></svg:g></svg:svg>

<svg:svg xmlns:cc="http://creativecommons.org/ns#" xmlns:dc="http://purl.org/dc/elements/1.1/" xmlns:inkscape="http://www.inkscape.org/namespaces/inkscape" xmlns:rdf="http://www.w3.org/1999/02/22-rdf-syntax-ns#" xmlns:sodipodi="http://sodipodi.sourceforge.net/DTD/sodipodi-0.dtd" xmlns:svg="http://www.w3.org/2000/svg" xml:space="preserve" width="1000" height="1000" version="1.1" style="clip-rule:evenodd;fill-rule:evenodd;image-rendering:optimizeQuality;shape-rendering:geometricPrecision;text-rendering:geometricPrecision" viewBox="0 0 1000 1000" id="svg10" sodipodi:docname="൨.svg" inkscape:version="1.0.2 (e86c870879, 2021-01-15)"><svg:metadata id="metadata14"><rdf:RDF><cc:Work rdf:about=""><dc:format>image/svg+xml</dc:format><dc:type rdf:resource="http://purl.org/dc/dcmitype/StillImage" /><dc:title /></cc:Work></rdf:RDF></svg:metadata><sodipodi:namedview pagecolor="#ffffff" bordercolor="#666666" borderopacity="1" objecttolerance="10" gridtolerance="10" guidetolerance="10" inkscape:pageopacity="0" inkscape:pageshadow="2" inkscape:window-width="1920" inkscape:window-height="1007" id="namedview12" showgrid="false" inkscape:zoom="0.678" inkscape:cx="465.16299" inkscape:cy="462.37134" inkscape:window-x="1920" inkscape:window-y="0" inkscape:window-maximized="1" inkscape:current-layer="svg10" showguides="true" inkscape:guide-bbox="true" inkscape:document-rotation="0" inkscape:snap-to-guides="true" inkscape:pagecheckerboard="0"><sodipodi:guide position="0,1000" orientation="0,1" id="guide16" inkscape:label="" inkscape:locked="true" inkscape:color="rgb(0,0,255)" /><sodipodi:guide position="1763.3122,2036.1693" orientation="1000,0" id="guide18" /><sodipodi:guide position="0,200" orientation="0,1" id="guide20" inkscape:label="base" inkscape:locked="true" inkscape:color="rgb(0,0,255)" /><inkscape:grid type="xygrid" id="grid24" originx="-473.37552" originy="-489.69235" /><sodipodi:guide position="0,0" orientation="0,1" id="guide34" inkscape:label="bottom" inkscape:locked="true" inkscape:color="rgb(0,0,255)" /><sodipodi:guide position="225.05109,1693.3186" orientation="0,1" id="guide44" inkscape:label="" inkscape:locked="false" inkscape:color="rgb(0,0,255)" /><sodipodi:guide position="0,900" orientation="0,1" id="guide46" inkscape:label="" inkscape:locked="true" inkscape:color="rgb(0,0,255)" /><sodipodi:guide position="771.36591,530.94987" orientation="-1,0" id="guide841" inkscape:label="width" inkscape:locked="false" inkscape:color="rgb(0,0,255)" /><sodipodi:guide position="0,1000" orientation="0,1000" id="guide860" /><sodipodi:guide position="1001.0497,612.78754" orientation="1000,0" id="guide862" /><sodipodi:guide position="1000,0" orientation="0,-1000" id="guide864" /><sodipodi:guide position="0,0" orientation="-1000,0" id="guide866" /></sodipodi:namedview>
 <svg:defs id="defs4"><inkscape:path-effect effect="fillet_chamfer" id="path-effect860" is_visible="true" lpeversion="1" satellites_param="F,0,1,1,0,20.981517,0,1 @ F,0,1,1,0,20.981517,0,1 @ F,0,0,1,0,0,0,1 @ F,0,0,1,0,0,0,1 @ F,0,0,1,0,0,0,1 @ F,0,0,1,0,0,0,1 @ F,0,0,1,0,0,0,1 @ F,0,0,1,0,0,0,1 @ F,0,0,1,0,0,0,1 @ F,0,0,1,0,0,0,1 @ F,0,0,1,0,0,0,1 @ F,0,0,1,0,0,0,1 @ F,0,1,1,0,20.981517,0,1 @ F,0,1,1,0,20.981517,0,1 @ F,0,0,1,0,0,0,1 @ F,0,0,1,0,0,0,1 @ F,0,0,1,0,0,0,1 @ F,0,0,1,0,0,0,1 @ F,0,0,1,0,0,0,1 @ F,0,0,1,0,0,0,1 @ F,0,0,1,0,0,0,1 @ F,0,0,1,0,0,0,1 @ F,0,0,1,0,0,0,1 @ F,0,0,1,0,0,0,1 @ F,0,0,1,0,0,0,1 @ F,0,0,1,0,0,0,1 @ F,0,0,1,0,0,0,1 @ F,0,1,1,0,20.981517,0,1 @ F,0,1,1,0,20.981517,0,1" unit="px" method="auto" mode="F" radius="0" chamfer_steps="1" flexible="false" use_knot_distance="true" apply_no_radius="true" apply_with_radius="true" only_selected="true" hide_knots="false" /><inkscape:path-effect effect="spiro" id="path-effect859" is_visible="true" lpeversion="1" /><inkscape:path-effect effect="spiro" id="path-effect862" is_visible="true" lpeversion="1" /><inkscape:path-effect effect="spiro" id="path-effect1521" is_visible="true" lpeversion="1" /><inkscape:path-effect effect="spiro" id="path-effect858" is_visible="true" lpeversion="1" /><inkscape:path-effect effect="spiro" id="path-effect854" is_visible="true" lpeversion="1" />
  <svg:style type="text/css" id="style2">
   
    .fil0 {fill:#EF7F1A;fill-rule:nonzero}
   
  </svg:style>
 <inkscape:path-effect effect="spiro" id="path-effect1214" is_visible="true" lpeversion="1" /><inkscape:path-effect effect="spiro" id="path-effect1195" is_visible="true" lpeversion="1" /><inkscape:path-effect effect="spiro" id="path-effect992" is_visible="true" lpeversion="1" /><inkscape:path-effect effect="spiro" id="path-effect287" is_visible="true" lpeversion="1" /><inkscape:path-effect effect="spiro" id="path-effect1032" is_visible="true" lpeversion="1" /><inkscape:path-effect effect="spiro" id="path-effect1218" is_visible="true" lpeversion="1" /><inkscape:path-effect effect="spiro" id="path-effect309" is_visible="true" lpeversion="1" /><inkscape:path-effect effect="spiro" id="path-effect1176" is_visible="true" lpeversion="1" /><inkscape:path-effect effect="spiro" id="path-effect1026" is_visible="true" lpeversion="1" /><inkscape:path-effect effect="spiro" id="path-effect1030" is_visible="true" lpeversion="1" /></svg:defs>
 
<svg:g id="path1087-1-75"><svg:path style="color:#000000;clip-rule:nonzero;fill:#1a5fb4;fill-rule:nonzero;stroke-linecap:round;stroke-linejoin:round;-inkscape-stroke:none;shape-rendering:auto" d="m 299.51172,65.160156 c -30.5631,-0.681254 -61.35839,2.045241 -91.67774,9.070313 C 146.95563,88.336141 88.899984,120.21367 47.992187,169.98437 6.3109426,220.6961 -13.545173,284.95418 -16.175781,348.16602 -18.7951,411.10658 -5.0309528,472.47838 15.806641,529.29883 43.89387,605.88776 84.30824,674.47331 118.47656,743.04297 c 13.48608,27.06413 26.23442,54.49724 38.22656,82.25586 5.36569,12.42012 16.57732,23.33298 30.64063,27.00195 14.06331,3.66898 29.33734,-0.43408 40.08203,-8.79297 l 108.45508,-84.37304 c 2.61235,-2.03229 5.04682,-4.40684 7.24219,-7.03321 L 364.6582,794.7832 C 375.52752,816.32422 397.74706,830 421.875,830 h 318.61719 c 27.34473,0 50.52634,-21.77873 52.23047,-49.07031 L 800,664.37891 c 0.78388,-12.55385 -3.5983,-29.68 -18.3125,-39.01758 -14.7142,-9.33759 -31.53,-6.17475 -42.56445,-0.4668 -40.55056,20.97618 -83.73411,36.89211 -128.16211,47.38477 26.66395,-31.87738 49.9948,-66.96067 67.48242,-105.60157 26.91527,-59.47235 39.45539,-127.05875 28.2793,-193.4082 C 695.12102,304.39378 658.90412,242.60712 610.94922,194.61133 550.42833,134.03883 471.79304,94.95565 389.79492,76.533203 360.40623,69.930471 330.07482,65.841411 299.51172,65.160156 Z m -1.26367,60.021484 c 26.11081,0.58476 52.47627,4.06955 78.39453,9.89258 72.24167,16.23047 140.64717,50.68749 191.86133,101.94531 40.36721,40.40163 69.8982,91.86884 79.05273,146.2168 8.82256,52.37713 -1.05095,108.48463 -23.77734,158.70117 -22.80812,50.39712 -58.23918,95.72155 -99.6211,135.48047 -3.15356,3.02988 -6.46498,5.89016 -9.68164,8.85351 -17.32085,0.98094 -34.6802,1.19028 -52.01367,0.5586 8.06406,-5.44957 16.01195,-11.07177 23.82031,-16.88477 32.43104,-24.14352 63.97393,-52.39931 88.4668,-87.92187 24.63012,-35.72162 41.61503,-78.7849 41.62891,-124.78711 0.0177,-58.51584 -27.3164,-111.7905 -64.52735,-152.14258 -60.57664,-65.69018 -148.40485,-100.60859 -236.15039,-102.17969 -35.63106,-0.63798 -72.38787,3.99344 -107.30273,17.24805 -35.05639,13.30833 -67.74849,35.34262 -91.5293,66.46094 -27.894684,36.50151 -40.540926,81.66456 -40.095703,125.91015 0.442909,44.01553 13.461612,86.212 33.419923,123.47461 24.30366,45.37548 58.14167,82.85739 92.79101,116.33985 25.89449,25.02243 53.20777,48.54956 81.63672,70.64648 l -80.09765,62.3125 C 194.20588,762.08358 183.51143,739.02789 172.17773,716.2832 136.78099,645.24833 97.754926,578.49164 72.138672,508.64062 53.188208,456.96604 41.587772,403.18029 43.773437,350.66016 45.947814,298.41129 62.647627,246.6453 94.34375,208.08203 c 31.07936,-37.81287 77.46627,-63.9156 127.0332,-75.40039 24.9033,-5.77016 50.76028,-8.08476 76.8711,-7.5 z m 16.3789,137.72266 c 72.36957,1.29578 145.13009,30.82945 193.11524,82.86523 29.14177,31.60176 48.64859,72.08544 48.63672,111.44727 -0.009,30.98134 -11.956,63.09127 -31.02539,90.74804 -19.20664,27.85583 -45.5807,52.0243 -74.9004,73.85157 -27.76162,20.66735 -57.39097,38.85145 -88.39062,54.2539 -8.035,3.99226 -14.44928,10.1871 -19.22656,17.42969 -2.35477,-2.75659 -4.96615,-5.2364 -7.77149,-7.33594 -31.70173,-23.72588 -61.91328,-49.44835 -90.38672,-76.96289 -32.51642,-31.42136 -61.79603,-64.56235 -81.59179,-101.52148 -16.15058,-30.15349 -25.9898,-63.29207 -26.31641,-95.75 -0.32429,-32.22787 9.22917,-64.6115 27.77149,-88.875 15.85756,-20.75038 39.17789,-36.93824 65.15234,-46.79883 26.11598,-9.91432 55.29447,-13.88225 84.93359,-13.35156 z M 738.16406,691.93359 733.28906,770 H 508.13672 c 10.6473,-8.17942 21.12043,-16.58056 31.27148,-25.36914 24.61423,-2.25722 49.09725,-5.96258 73.27735,-11.16016 43.17742,-9.2811 85.28192,-23.29237 125.47851,-41.53711 z" id="path28071" /></svg:g></svg:svg>
